images/mail-icon.svg

<svg width="41" height="41" viewBox="0 0 41 41" fill="none" xmlns="http://www.w3.org/2000/svg">
<rect width="41" height="41" rx="8" fill="#005FF9"/>
<path d="M24.0078 21C24.0069 21.7974 23.6897 22.562 23.1258 23.1258C22.562 23.6897 21.7974 24.0069 21 24.0078C20.2026 24.0069 19.438 23.6897 18.8742 23.1258C18.3103 22.562 17.9931 21.7974 17.9922 21C17.9931 20.2026 18.3103 19.438 18.8742 18.8742C19.438 18.3103 20.2026 17.9931 21 17.9922C21.7974 17.9931 22.562 18.3103 23.1258 18.8742C23.6897 19.438 24.0069 20.2026 24.0078 21ZM21 11C15.4856 11 11 15.4856 11 21C11 26.5144 15.4856 31 21 31C23.0104 31.003 24.9745 30.3968 26.6333 29.2611L26.6611 29.2411L25.3144 27.6744L25.2922 27.6889C24.0126 28.5134 22.5223 28.9513 21 28.95C16.6167 28.95 13.05 25.3833 13.05 21C13.05 16.6167 16.6167 13.05 21 13.05C25.3833 13.05 28.95 16.6167 28.95 21C28.95 21.5678 28.8867 22.1433 28.7633 22.7089C28.5111 23.7411 27.7889 24.0567 27.2467 24.0144C26.7011 23.97 26.0622 23.5811 26.0578 22.6311V21C26.0578 18.2111 23.7889 15.9422 21 15.9422C18.2111 15.9422 15.9422 18.2111 15.9422 21C15.9422 23.7889 18.2111 26.0578 21 26.0578C22.3556 26.0578 23.6256 25.5289 24.5833 24.5656C24.8794 25.0303 25.2887 25.4122 25.7728 25.6754C26.257 25.9386 26.8001 26.0743 27.3511 26.07C28.0789 26.07 28.7989 25.8256 29.3811 25.3856C29.98 24.93 30.4278 24.2711 30.6756 23.4811C30.7144 23.3533 30.7867 23.0611 30.7867 23.0589L30.7889 23.0478C30.9356 22.4144 31 21.7811 31 21C31 15.4856 26.5144 11 21 11Z" fill="#FF9E00"/>
</svg>

<svg xmlns="http://www.w3.org/2000/svg" width="41" height="41" fill="none"><rect width="41" height="41" fill="#005FF9" rx="8"/><path fill="#FF9E00" d="M24.008 21A3.011 3.011 0 0 1 21 24.008 3.011 3.011 0 0 1 17.992 21 3.011 3.011 0 0 1 21 17.992 3.011 3.011 0 0 1 24.008 21ZM21 11c-5.514 0-10 4.486-10 10s4.486 10 10 10a9.945 9.945 0 0 0 5.633-1.739l.028-.02-1.347-1.567-.022.015A7.912 7.912 0 0 1 21 28.95c-4.383 0-7.95-3.567-7.95-7.95s3.567-7.95 7.95-7.95 7.95 3.567 7.95 7.95c0 .568-.063 1.143-.187 1.709-.252 1.032-.974 1.348-1.516 1.305-.546-.044-1.185-.433-1.19-1.383V21A5.064 5.064 0 0 0 21 15.942 5.064 5.064 0 0 0 15.942 21 5.064 5.064 0 0 0 21 26.058a5.014 5.014 0 0 0 3.583-1.492 3.253 3.253 0 0 0 2.768 1.504c.728 0 1.448-.244 2.03-.684.599-.456 1.047-1.115 1.295-1.905.038-.128.11-.42.11-.422l.003-.011C30.936 22.414 31 21.78 31 21c0-5.514-4.486-10-10-10Z"/></svg>
